src/assets/skills/css3.svg

<svg height="100pt" viewBox="0 0 100 100" width="100pt" xmlns="http://www.w3.org/2000/svg"><path d="m0 0h100v100h-100z" fill="#1572b6"/><path d="m76.575 23.012-53.15-.012.859 10.574 40.831.009-1.028 10.951h-26.776l.968 10.377h24.93l-1.475 14.207-11.736 3.242-11.919-3.267-.759-8.508h-10.525l1.17 15.546 22.04 6.869 21.667-6.17z" fill="#fff"/></svg>

<?xml version="1.0" encoding="UTF-8" standalone="no"?><!-- Generator: Gravit.io --><svg xmlns="http://www.w3.org/2000/svg" xmlns:xlink="http://www.w3.org/1999/xlink" style="isolation:isolate" viewBox="0 0 100 100" width="100pt" height="100pt"><path d=" M 0 0 L 100 0 L 100 100 L 0 100 L 0 0 Z " fill="rgb(21,114,182)"/><path d=" M 76.575 23.012 L 23.425 23 L 24.284 33.574 L 65.115 33.583 L 64.087 44.534 L 37.311 44.534 L 38.279 54.911 L 63.209 54.911 L 61.734 69.118 L 49.998 72.36 L 38.079 69.093 L 37.32 60.585 L 26.795 60.585 L 27.965 76.131 L 50.005 83 L 71.672 76.83 L 76.575 23.012 Z " fill="rgb(255,255,255)"/></svg>
